X: 1347
T: Meclisinde Mail Oldum
C: Celal Güzelses
O: Turkey
F: http://compmusic.upf.edu/node/140
N: mahur--turku--kapali_curcuna--meclisinde_mail--adiyaman
N: makam= mahur
N: form= turku
N: usul= kapali_curcuna = 10/8
M: 10/8
L: 1/16
K: C ^9/8f   
Q: 1/4=228
%%MIDI tuningsystem comma53
z4 d2e4d4e2 d2c2  | B4 c2d4c4d2 c2B2  | \
w:   |   | 
A4 G2A4G4B4A2  | A4 B2A2 G2G2 A2B2 c2d2  | 
w:   |   | 
z4 d2e4d4e2 d2c2  | B4 c2d4c4d2 c2B2  | \
w:   |   | 
A4 G2A4G4B4A2  | A4 B2A2 G2{A}G4ga gfef  | 
w:   |   | 
g4 f2g4g2 {a}f2g4f2  | g4 f2g2 a2f2 g2e4d2  | \
w:  *  Mec li sin *  *  de   |  ma il_ *  *  ol *  dum   | 
d6d4e4d4z2  | f2g2 a2a2 g2g2 f2{a}g6  | 
w:  ben  bir  ka şı   |  ka *  *  ra *  ya    | 
d6d4e4d4z2  | f2g2 a2a2 g2g2 f2{a}g6  | \
w:  ben  bir  ka şı   |  ka *  *  ra *  ya    | 
z4 f2g4g2 a2f6  | f2g2 e2e4e2 d2d4c2  | 
w:  Yok  mu  ta *  bip   |  sem *  *  ti niz *  de   | 
d4 c2d4e4d4B2  | c4 B2c4de dcd6  | B4 A2A4c4B4A2  | \
w:  mer *  hem_ e de   |  ya *  ra ya    |  mer *  hem_ e de   | 
A4 B2A2 G2G2 {A}F2{A}G6  | 
w:  ya *  ra *  ya    | 
z4 f2g4g2 a2f6  | f2g2 e2e4e2 d2d4c2  | \
w:  Yok  mu  ta *  bip   |  sem *  *  ti niz *  de   | 
d4 c2d4e4d4B2  | c4 B2c4de dcd6  | 
w:  mer *  hem_ e de   |  ya *  ra ya    | 
B4 A2A4c4B4A2  | A4 B2A2 G2G2 {A}F2{A}G6  | \
w:  mer *  hem_ e de   |  ya *  ra *  ya    | 
g4 f2g4g2 {a}f2g4f2  | g4 f2g2 a2f2 g2e4d2  | 
w:  *  Be nim  bir  *  *  e  |  fen dim  *  *  var *  dır   | 
d6d4e4d4z2  | f2g2 a2a2 g2g2 f2{a}g6  | \
w:  mer hem  e der   |  ya *  *  ra *  ya    | 
d6d4e4d4z2  | f2g2 a2a2 g2g2 f2{a}g6  | 
w:  mer hem  e der   |  ya *  *  ra *  ya    | 
z4 f2g4g2 a2f6  | f2g2 e2e4e2 d2d4c2  | \
w:  Han gi  der *  di  |  me  *  *  ya na *  yım   | 
d4 c2d4e4d4B2  | c4 B2c4de dcd6  | 
w:  dağ *  lar  der dim   |  var  *  be nim    | 
B4 A2A4c4B4A2  | A4 B2A2 G2G2 {A}F2{A}G6  | \
w:  çöl *  ler  der dim   |  var  *  be *  nim    | 
z4 f2g4f2 a2f6  | f2g2 e2e4e2 d2d4c2  | 
w:  Ba şı mı  *  sev  |  dâ *  *  ya  sa *  lan   | 
d4 c2d4e4d4B2  | c4 B2c4de dcd6  | B4 A2A4c4B4A2  | \
w:  bir_ *  ağ be yim   |  var  *  be nim    |  bir  *  paş be yim   | 
A4 B2A2 G2G2 {A}F2{A}G6  | 
w:  var  *  be *  nim    | 
z4 d2e4d4e2 d2c2  | B4 c2d4c4d2 c2B2  | \
w:   |   | 
A4 G2A4G4B4A2  | A4 B2A2 G2G2 A2B2 c2d2  | 
w:   |   | 
z4 d2e4d4e2 d2c2  | B4 c2d4c4d2 c2B2  | \
w:   |   | 
A4 G2A4G4B4A2  | A4 B2A2 G2{A}G4ga gfef  | 
w:   |   | 
g4 f2g4g2 {a}f2g4f2  | g4 f2g2 a2f2 g2e4d2  | \
w:  *  Ev le ri *  *  nin   |  ö nü  *  *  a *  nam   | 
d4 d6e4d4z2  | f2g2 a2a2 g2g2 f2{a}g6  | 
w:  ka ra  ü züm   |  as *  *  ma *  sı    | 
d4 d6e4d4z2  | f2g2 a2a2 g2g2 f2{a}g6  | \
w:  ka ra  ü züm   |  as *  *  ma *  sı    | 
z4 f2g4g2 a2f6  | f2g2 e2e4e2 d2d4c2  | 
w:  Be li ne  *  ku  |  şak  *  *  ku şa *  mış   | 
d4 c2d4e4d4B2  | c4 B2c4de dcd6  | B4 A2A4c4B4A2  | \
w:  o  *  da  A cem   |  bas *  ma sı    |  o  *  da  A cem   | 
A2{B}A2 B2A2 G2G2 {A}F2{A}G6  | 
w:  bas *  *  *  ma *  sı    | 
z4 f2g4g2 a2f6  | f2g2 e2e4e2 d2d4c2  | \
w:  Be li ne  *  ku  |  şak  *  *  ku şa *  mış   | 
d4 c2d4e4d4B2  | c4 B2c4de dcd6  | 
w:  o  *  da  A cem   |  bas *  ma sı    | 
B4 A2A4c4B4A2  | A2{B}A2 B2A2 G2G2 {A}F2{A}G6  | \
w:  o  *  da  A cem   |  bas *  *  *  ma *  sı    | 
g4 f2g4g2 {a}f2g4f2  | 
w:  *  Bu ra lar *  *  da   | 
g4 f2g2 a2f2 g2e4d2  | d4 d6e4d4z2  | \
w:  yâr  se *  *  ver *  ler   |  o  da  bey ler   | 
f2g2 a2a2 g2g2 f2{a}g6  | 
w:  yos *  *  ma *  sı    | 
d4 d6e4d4z2  | f2g2 a2a2 g2g2 f2{a}g6  | \
w:  o  da  bey ler   |  yos *  *  ma *  sı    | 
z4 f2g4g2 a2f6  | f2g2 e2e4e2 d2d4c2  | 
w:  Han gi  der *  di  |  me  *  *  ya na *  yım   | 
d4 c2d4e4d4B2  | c4 B2c4de dcd6  | B4 A2A4c4B4A2  | \
w:  dağ *  lar  der dim   |  var  *  be nim    |  çöl *  ler  der dim   | 
A4 B2A2 G2G2 {A}F2{A}G6  | 
w:  var  *  be *  nim    | 
z4 f2g4g2 a2f6  | f2g2 e2e4e2 d2d4c2  | \
w:  Ba şı mı  *  sev  |  dâ *  *  ya  sa *  lan   | 
d4 c2d4e4d4B2  | c4 B2c4de dcd6  | 
w:  bir_ *  ağ be yim   |  var  *  be nim    | 
B4 A2A4c4B4A2  | A4 B2A2 G2G2 {A}F2{A}G6  | |


